src/assets/Loading.svg

<svg width="238" height="140" viewBox="0 0 238 140" fill="none" xmlns="http://www.w3.org/2000/svg">
<path fill-rule="evenodd" clip-rule="evenodd" d="M223.401 39.9908H207.532H188.927H180.445H156.797C152.489 39.9908 148.413 41.9516 145.717 45.3212L145.454 45.6486L154.403 60.2209L155.139 61.4199L167.325 81.266H201.589V85.1905L201.581 86.5317L212.597 90.722L224.336 94.5759C230.734 97.0457 237.611 92.3076 237.611 85.4295V54.2471C237.611 46.3729 231.249 39.9908 223.401 39.9908Z" fill="#242424"/>
<path d="M179.439 77.6072V39.0905H210.669L179.439 77.6072Z" fill="white"/>
<path fill-rule="evenodd" clip-rule="evenodd" d="M201.589 87.8461H157.595L200.352 115.745C200.353 115.743 210.928 94.2435 212.678 90.6846L201.589 86.4052V87.8461Z" fill="#242424"/>
<path fill-rule="evenodd" clip-rule="evenodd" d="M190.064 12.6002L190.633 15.6821C191.125 14.4937 192.184 13.5695 193.54 13.3184C193.824 13.265 194.107 13.2466 194.386 13.2558L193.423 8.03992L184.984 9.60605L190.064 12.6002Z" fill="#D66969" fill-opacity="0.53"/>
<path fill-rule="evenodd" clip-rule="evenodd" d="M2.68901 104.341C1.41865 104.341 0.388672 105.375 0.388672 106.649V139.025H11.491V120.072L4.77254 105.671C4.39448 104.86 3.58206 104.341 2.68901 104.341Z" fill="#F5C5B6"/>
<path fill-rule="evenodd" clip-rule="evenodd" d="M63.3025 117.747L48.4028 112.33C47.563 112.025 46.6236 112.235 45.993 112.868C45.0938 113.77 45.0938 115.231 45.993 116.133L68.8099 139.026L76.6603 131.148L63.3025 117.747Z" fill="#F5C5B6"/>
<path fill-rule="evenodd" clip-rule="evenodd" d="M195.819 20.7924C197.455 20.0788 198.448 18.3081 198.109 16.4718C197.769 14.6271 196.198 13.325 194.403 13.2578L194.386 13.2563C194.106 13.2471 193.824 13.2655 193.54 13.3189C192.184 13.57 191.124 14.4943 190.632 15.6826L190.064 12.6007L184.984 9.60657L184.917 9.61878L172.219 11.9756L175.255 28.443C175.734 31.0425 178.499 32.5178 180.916 31.4646L185.454 29.3268L189.132 49.2836L199.358 39.9913L195.819 20.7924Z" fill="#F5C5B6"/>
<path fill-rule="evenodd" clip-rule="evenodd" d="M11.491 120.072V139.026H68.8099L48.6911 118.84L11.491 120.072Z" fill="#6893C0"/>
<path fill-rule="evenodd" clip-rule="evenodd" d="M172.219 11.9753L184.917 9.61846L184.984 9.60624L193.423 8.0401C191.953 0.070504 186.516 -0.169903 179.862 1.22985C173.209 2.63037 167.898 1.82517 167.898 1.82517C165.764 7.53027 172.219 11.9753 172.219 11.9753Z" fill="#EC6A6A"/>
<path fill-rule="evenodd" clip-rule="evenodd" d="M201.589 85.1908V81.2663H167.325L155.138 61.4201L154.365 60.1369L145.454 45.6488L145.428 45.6061H76.6602L100.756 84.8465L111.359 75.5321C117.12 70.472 125.089 69.1493 132.039 71.7664C133.411 72.2831 134.747 72.9387 136.015 73.766L157.595 87.846H201.589V86.405V85.1908Z" fill="url(#paint0_linear)"/>
<path fill-rule="evenodd" clip-rule="evenodd" d="M189.846 81.266L193.424 70.4435L182.88 66.7258L174.695 72.5111V81.266H189.846Z" fill="#F5C5B6"/>
<path fill-rule="evenodd" clip-rule="evenodd" d="M228.817 75.6906L193.35 71.0044L193.498 69.8817L228.964 74.5679L228.817 75.6906Z" fill="#3E3F71"/>
<path fill-rule="evenodd" clip-rule="evenodd" d="M218.996 73.7743L217.87 73.7209L218.73 55.2089L219.857 55.2615L218.996 73.7743Z" fill="#3E3F71"/>
<path fill-rule="evenodd" clip-rule="evenodd" d="M95.0632 117.303L119.014 99.2835L140.697 115.791L95.0632 117.303ZM200.352 115.745L136.015 73.7658C134.747 72.9385 133.41 72.2829 132.038 71.7662C125.088 69.1491 117.119 70.4718 111.359 75.5319L63.302 117.747L76.6598 131.148L68.8094 139.025H184.897C196.079 139.025 204.093 128.204 200.868 117.462L200.352 115.745Z" fill="#6893C0"/>
<path fill-rule="evenodd" clip-rule="evenodd" d="M157.322 129.159L118.673 99.735L119.354 98.8329L158.004 128.256L157.322 129.159Z" fill="#352C47"/>
<path fill-rule="evenodd" clip-rule="evenodd" d="M76.9975 131.602L76.3213 130.696L123.674 95.0708L124.35 95.9768L76.9975 131.602Z" fill="#352C47"/>
<defs>
<linearGradient id="paint0_linear" x1="76.6602" y1="109.039" x2="163.653" y2="28.8606" gradientUnits="userSpaceOnUse">
<stop stop-color="#FFAF70"/>
<stop offset="1" stop-color="#FF8D85"/>
</linearGradient>
</defs>
</svg>

<svg width="238" height="140" viewBox="0 0 238 140" fill="none" xmlns="http://www.w3.org/2000/svg"><path fill-rule="evenodd" clip-rule="evenodd" d="M223.401 39.99h-66.604c-4.308 0-8.384 1.962-11.08 5.331l-.263.328 8.949 14.572.736 1.199 12.186 19.846h34.264v3.924l-.008 1.342 11.016 4.19 11.739 3.854c6.398 2.47 13.275-2.268 13.275-9.146V54.247c0-7.874-6.362-14.256-14.21-14.256z" fill="#242424"/><path d="M179.439 77.607V39.09h31.23l-31.23 38.517z" fill="#fff"/><path fill-rule="evenodd" clip-rule="evenodd" d="M201.589 87.846h-43.994l42.757 27.899 12.326-25.06-11.089-4.28v1.441z" fill="#242424"/><path fill-rule="evenodd" clip-rule="evenodd" d="M190.064 12.6l.569 3.082a3.915 3.915 0 013.753-2.426l-.963-5.216-8.439 1.566 5.08 2.994z" fill="#D66969" fill-opacity=".53"/><path fill-rule="evenodd" clip-rule="evenodd" d="M2.689 104.341c-1.27 0-2.3 1.034-2.3 2.308v32.376H11.49v-18.953l-6.718-14.401a2.3 2.3 0 00-2.084-1.33zM63.303 117.747l-14.9-5.417a2.295 2.295 0 00-2.41.538c-.9.902-.9 2.363 0 3.265l22.817 22.893 7.85-7.878-13.357-13.401zM195.819 20.792a3.935 3.935 0 00-1.416-7.534l-.017-.002a3.917 3.917 0 00-3.754 2.426l-.568-3.081-5.08-2.994-.067.012-12.698 2.357 3.036 16.467c.479 2.6 3.244 4.075 5.661 3.022l4.538-2.138 3.678 19.957 10.226-9.293-3.539-19.199z" fill="#F5C5B6"/><path fill-rule="evenodd" clip-rule="evenodd" d="M11.491 120.072v18.954H68.81L48.69 118.84l-37.2 1.232z" fill="#6893C0"/><path fill-rule="evenodd" clip-rule="evenodd" d="M172.219 11.975l12.698-2.357.067-.012 8.439-1.566c-1.47-7.97-6.907-8.21-13.561-6.81-6.653 1.4-11.964.595-11.964.595-2.134 5.705 4.321 10.15 4.321 10.15z" fill="#EC6A6A"/><path fill-rule="evenodd" clip-rule="evenodd" d="M201.589 85.19v-3.924h-34.264L155.138 61.42l-.773-1.283-8.911-14.488-.026-.043H76.66l24.096 39.24 10.603-9.314a20.42 20.42 0 0120.68-3.766 20.424 20.424 0 013.976 2l21.58 14.08h43.994V85.191z" fill="url(#paint0_linear)"/><path fill-rule="evenodd" clip-rule="evenodd" d="M189.846 81.266l3.578-10.823-10.544-3.717-8.185 5.785v8.755h15.151z" fill="#F5C5B6"/><path fill-rule="evenodd" clip-rule="evenodd" d="M228.817 75.69l-35.467-4.686.148-1.122 35.466 4.686-.147 1.123z" fill="#3E3F71"/><path fill-rule="evenodd" clip-rule="evenodd" d="M218.996 73.774l-1.126-.053.86-18.512 1.127.052-.861 18.513z" fill="#3E3F71"/><path fill-rule="evenodd" clip-rule="evenodd" d="M95.063 117.303l23.951-18.02 21.683 16.508-45.634 1.512zm105.289-1.558l-64.337-41.98a20.432 20.432 0 00-3.977-1.999 20.418 20.418 0 00-20.679 3.766l-48.057 42.215 13.358 13.401-7.85 7.877h116.087c11.182 0 19.196-10.821 15.971-21.563l-.516-1.717z" fill="#6893C0"/><path fill-rule="evenodd" clip-rule="evenodd" d="M157.322 129.159l-38.649-29.424.681-.902 38.65 29.423-.682.903z" fill="#352C47"/><path fill-rule="evenodd" clip-rule="evenodd" d="M76.998 131.602l-.677-.906 47.353-35.625.676.906-47.352 35.625z" fill="#352C47"/><defs><linearGradient id="paint0_linear" x1="76.66" y1="109.039" x2="163.653" y2="28.861" gradientUnits="userSpaceOnUse"><stop stop-color="#FFAF70"/><stop offset="1" stop-color="#FF8D85"/></linearGradient></defs></svg>
